X: 2035
T: Ashplant, The
R: reel
M: 4/4
K: Edorian
BE~E2 BAGA|BE~E2 ~G3A|BE~E2 BABd|gedB A2GA|
BE~E2 BAGA|BE~E2 ~G3A|~B3A (3Bcd ef|gedB A2GA||
B2eB fBeB|~B2ed BAGA|B2eB ~f3d|efdB A2GA|
B2eB fBeB|~B2ed BAGA|(3Bcd ef ~g3a|gedB A2GA||

